X:1
T:An Address for All
T:Transcribed from Southern and Western Pocket Harmonist , 1846 and from Christian Harmony, 1867.
T:John Peck, 1794 (First stanza) Anonymous author, before 1810 (Stanzas 2-4a) Anonymous author, before 1846 (Stanza 4b)
T:B Major            Alto by William Walker, 1867
T:William Walker, 1846
%%score [ 1 2 3 4 ]
L:1/8
Q:1/4=120
M:4/4
K:Bb
V:1 treble nm="Tr." snm="Tr."
V:2 treble nm="A." snm="A."
V:3 treble-8 nm="T." snm="T."
V:4 bass nm="B." snm="B."
V:1
"_I sing a song which doth belong  To all the human race,\nConcerning death which steals the breath \n                                               And blasts the comely face;""_1. {" B4 d2 d2 | %1
 f4 f4 | d2 c2 B3 d | f3 d B2 c2 |"_}" [Bd]8 :| %5
"_Come  listen  all  unto  my  call   Which  I  do  make to – day, _______  For  you  must  die as  well as  I,  And pass from hence away." B4 f2 f2 | %6
 d3 c B2 c2 | d4 d4 | f2 f2 d2 !fermata!d2 | (f3 d c4) | B4 f2 f2 | d3 c B2 c2 | d4 d4 | %13
 f3 d B2 c2 | [Bd]8 |] %15
V:2
"_No human power can stop the hour Wherein a mortal dies;\nA Caesar may be great today,  Yet death will close his eyes.""_2. {" [DF]4 F2 G2 | %1
 F4 F4 | B2 A2 G3 B | A3 A G2 G2 |"_}" [DB]8 :| %5
"_Though some do strive and do arrive  To riches and renown.  Enjoying health and swim in wealth,   Yet death will bring them down." F4 F2 F2 | %6
 B3 A G2 F2 | F4 F4 | F2 B2 G2 !fermata!G2 | (B4 A4) | F4 F2 B2 | A3 F G2 F2 | F4 B4 | A3 F G2 G2 | %14
 B8 |] %15
V:3
"_Though beauty grace your comely face With roses white and red,  \n       A  dying  fall  will  spoil  it  all,  For  Ab–sa–lom  is   dead;""_3. {" F4 F2 G2 | %1
 B4 B4 | d2 c2 d3 B | c3 d B2 G2 |"_}" F8 :| %5
"_Though you acquire the best attire,   Appearing fine and fair, ____  Yet death will come into the room,  And strip you naked there." B4 c2 d2 | %6
 f3 g d2 c2 | B4 B4 | c2 d2 f2 !fermata!f2 | (dcde f4) | B4 c2 d2 | f3 g d2 c2 | B4 B4 | %13
 c3 d B2 G2 | F8 |] %15
V:4
"_The princes high and beggars die,   And mingle with the dust.  \nThe rich, the brave, the poorest slave, The wicked and the just;""_4. {" [B,,F,]4 D,2 C,2 | %1
 B,,4 [B,,B,]4 | D,2 F,2 D,3 E, | F,3 F, D,2 C,2 |"_}" B,,8 :| %5
"_Therefore prepare to meet thy God,  Before it be too late.                   Or else you'll weep, lament and cry,   Lost in a ruined state." [B,,B,]4 F,2 F,2 | %6
 F,3 E, D,2 F,2 | B,,4 B,,4 | F,2 D,2 B,2 !fermata!B,2 | F,8 | [B,,B,]4 F,2 F,2 | F,3 E, D,2 F,2 | %12
 B,,4 [B,,B,]4 | F,3 F, D,2 C,2 | B,,8 |] %15

